icons/svg/brightness-4.svg

<svg xmlns="http://www.w3.org/2000/svg" version="1.1" baseProfile="full" width="24" height="24" viewBox="0 0 24.00 24.00" xml:space="preserve"><path fill="#000" fill-opacity="1" stroke-width=".2" stroke-linejoin="round" d="M12 18c-.89 0-1.74-.2-2.5-.55C11.56 16.5 13 14.42 13 12c0-2.42-1.44-4.5-3.5-5.45C10.26 6.2 11.11 6 12 6c3.31 0 6 2.69 6 6s-2.69 6-6 6zm8-9.31V4h-4.69L12 .69 8.69 4H4v4.69L.69 12 4 15.31V20h4.69L12 23.31 15.31 20H20v-4.69L23.31 12 20 8.69z"/></svg>

﻿<?xml version="1.0" encoding="utf-8"?>
<!DOCTYPE svg PUBLIC "-//W3C//DTD SVG 1.1//EN" "http://www.w3.org/Graphics/SVG/1.1/DTD/svg11.dtd">
<svg xmlns="http://www.w3.org/2000/svg" xmlns:xlink="http://www.w3.org/1999/xlink" version="1.1" baseProfile="full" width="24" height="24" viewBox="0 0 24.00 24.00" enable-background="new 0 0 24.00 24.00" xml:space="preserve">
	<path fill="#000000" fill-opacity="1" stroke-width="0.2" stroke-linejoin="round" d="M 12,18C 11.11,18 10.26,17.8 9.5,17.45C 11.56,16.5 13,14.42 13,12C 13,9.58 11.56,7.5 9.5,6.55C 10.26,6.2 11.11,6 12,6C 15.31,6 18,8.69 18,12C 18,15.31 15.31,18 12,18 Z M 20,8.69L 20,4L 15.31,4L 12,0.690002L 8.69,4L 4,4L 4,8.69L 0.690002,12L 4,15.31L 4,20L 8.69,20L 12,23.31L 15.31,20L 20,20L 20,15.31L 23.31,12L 20,8.69 Z "/>
</svg>
